X:449
T: DER MAI WILL SICH MIT GUNSTEN
N: E0382
O: Europa, Mitteleuropa, Deutschland
R: Liebes - Lied, Jahreszeiten, Fruehling
M: 4/4
L: 1/8
K: F
F2 | F2G2A2B2 | c4A2
A2 | d4c2B2 | c4A2
A2 | d2d2c2A2 | cBAGF2z2 | z2
F2F2A2 | G2F2E2E2 | D4z2
E2 | F3FF2E2 | D4C4 | z2
F2F2F2 | F2E2F3E | D2
C2F2G2 | A4z2
F2 | F3ED2C2 | G4G2G2 | G4F2

@@@ Tune index: 4099
